X:1
T:Title
%%score { ( 1 4 5 ) | ( 2 3 ) }
L:1/8
M:4/4
K:G
V:1 treble nm="Grand Piano"
V:4 treble 
V:5 treble 
V:2 bass 
V:3 bass 
V:1
 z4 z2[Q:1/4=108] B>c | B2 A2 A2 BA | G4 D2 F>G | [FA]2 [FA]2 [FA]2 [EG]A |[M:3/4] [DGB]6 | %5
[M:1/4] [DGB]>[EGc] |[M:4/4] [DGB]2 [CFA]2 [CFA]2 [DB]A | G4 D2 A>B | [Ec]3 [Ec] [CDF]2 [CE]2 | %9
[M:3/4] [B,DG]6 |[M:1/4] [DF]>[EG] |[M:4/4] [FA]3 [FA] [FA][GB][Ac][GB] | [GB]2 [FA]4 [FB]>[DFA] | %13
 [DG]3 [DFA] [DGB]2 [DGd]2 |[M:3/4] [DFA]6 |[M:1/4] [DFd]>[DFc] | %16
[M:4/4] [DGB]2 [DB]A [B,G]2 [D=FG]2 | [CEA]2 [CEc]4 [DEB][CEA] | G3 G GFBA |[M:3/4] [B,G]6 | %20
[M:1/4] Bc |[M:4/4] d6 z2 | d2 d>c B2 [FA][GB] | c6 z2 | B2 e>e d2 Bc | d6 z2 | d2 d>c B2 c>B | %27
 [EA]2 [EA]2 [DB]3 [CA] |[M:3/4] [B,G]6 |] %29
V:2
 z4 z2 [G,D]>[G,E] | [D,G,D]2 [D,F,C]2 [D,F,C]2 DC | [G,B,]4 [G,B,]2 [A,CD]>[G,B,] | %3
 [D,D]2 [D,D]2 [D,D]2 z[K:treble] F |[M:3/4] G,6 |[M:1/4][K:bass] G,>G, |[M:4/4] D,2 D,2 D,2 z C | %7
 [G,B,D]4 [G,B,]2 [G,C]>[G,D] | [C,G,]3 [C,G,] D,2 z F |[M:3/4] G,,6 |[M:1/4] D,>[D,D] | %11
[M:4/4] [D,D]3 [D,D] [D,D]2 [D,D]2 | [D,D]2 [D,D]4 [D,D]>C, | B,,3 D, G,2 B,,2 |[M:3/4] D,6 | %15
[M:1/4] D,>D, |[M:4/4] G,2 z C E,2 B,,2 | C,2 C,4 C,C, | [D,B,D]3 [D,B,D] [D,A,D]2 DC | %19
[M:3/4] [G,,G,]6 |[M:1/4][K:treble] [G,G][G,A,G] |[M:4/4] z4 z2 .C2 | %22
 [G,B,G]2 [G,B,G]>[G,A,G] [G,G]2[K:bass] [D,C][D,B,] | [D,A,]2 [D,D][D,D] z[K:treble] F z A | %24
 [G,DG]2 [G,CG]>[G,CG] [G,B,G]2 [G,G][G,A,G] | z4 z2 .C2 | %26
 [G,B,G]2 [G,B,G]>[G,A,G] [G,G]2[K:bass] [G,E]>[G,D] | [C,G,]2 [C,G,]2 [D,F,]3 [D,F,] | %28
[M:3/4] [G,,G,]6 |] %29
V:3
 x8 | z4 z2 [D,F,]2 | x8 | z4 z2 [D,D]2[K:treble] |[M:3/4] x6 |[M:1/4][K:bass] x2 | %6
[M:4/4] z4 z2 D,2 | x8 | z4 z2 D,2 |[M:3/4] x6 |[M:1/4] x2 |[M:4/4] x8 | x8 | x8 |[M:3/4] x6 | %15
[M:1/4] x2 |[M:4/4] z2 D,2 z4 | x8 | z4 z2 [D,F,]2 |[M:3/4] x6 |[M:1/4][K:treble] x2 | %21
[M:4/4] [G,B,G]2 [G,B,][G,B,] [G,B,]G,[G,G]-[G,B,G] | x6[K:bass] x2 | z4 [D,D]2[K:treble] [D,D]2 | %24
 x8 | [G,B,G]2 [G,B,][G,B,] [G,B,]G,[G,G]-[G,B,G] | x6[K:bass] x2 | x8 |[M:3/4] x6 |] %29
V:4
 x8 | x8 | x8 | x8 |[M:3/4] x6 |[M:1/4] x2 |[M:4/4] x8 | x8 | x8 |[M:3/4] x6 |[M:1/4] x2 | %11
[M:4/4] x8 | x8 | x8 |[M:3/4] x6 |[M:1/4] x2 |[M:4/4] z2 F2 z4 | x8 | x8 |[M:3/4] x6 |[M:1/4] x2 | %21
[M:4/4] z2 GG z Bed | x8 | F2 AA AA[Bd]c | x8 | z2 GG z Bed | x8 | x8 |[M:3/4] x6 |] %29
V:5
 x8 | x8 | x8 | x8 |[M:3/4] x6 |[M:1/4] x2 |[M:4/4] x8 | x8 | x8 |[M:3/4] x6 |[M:1/4] x2 | %11
[M:4/4] x8 | x8 | x8 |[M:3/4] x6 |[M:1/4] x2 |[M:4/4] x8 | x8 | x8 |[M:3/4] x6 |[M:1/4] x2 | %21
[M:4/4] z4 G2 z2 | x8 | x8 | x8 | z4 G2 z2 | x8 | x8 |[M:3/4] x6 |] %29

